src/icons/svg/VisLine.svg

<svg width="24" height="24" viewBox="0 0 24 24" fill="none" xmlns="http://www.w3.org/2000/svg">
<path d="M23.872 23.872H0.127014V0.126999H23.872V23.872ZM0.894014 23.106H23.107V0.892999H0.894014V23.106V23.106Z" fill="#1C2125"/>
<path d="M12.218 15.121L7.40401 12.714L3.09401 14.869L2.52301 13.727L7.40401 11.286L11.781 13.475L16.158 6.909L20.905 4.535L21.476 5.677L17.032 7.899L12.217 15.12L12.218 15.121Z" fill="#1C2125"/>
</svg>

<!-- Generated by IcoMoon.io -->
<svg version="1.1" xmlns="http://www.w3.org/2000/svg" width="24" height="24" viewBox="0 0 24 24">
<title>vis-line</title>
<path fill="#444" d="M23.872 23.872h-23.745v-23.745h23.745v23.745zM0.894 23.106h22.213v-22.213h-22.213v22.213z"></path>
<path fill="#444" d="M12.218 15.121l-4.814-2.407-4.31 2.155-0.571-1.142 4.881-2.441 4.377 2.189 4.377-6.566 4.747-2.374 0.571 1.142-4.444 2.222-4.815 7.221z"></path>
</svg>
